public/avatar/shoe/46.svg

<svg xmlns:xlink="http://www.w3.org/1999/xlink" height="38.3" width="36.05" xmlns="http://www.w3.org/2000/svg"><use height="16.2" transform="translate(9.05 11.75)" width="22.8" xlink:href="#a"/><defs><g id="a"><path d="m4.35-1.35-2.9.85q-2.25.5-6.2-.8Q-2.2-2.7.95-2.35q1.8.15 3.4 1m-17.3 7.4q3.05-.65 5.75.55 3.05 1.35 2.35 3.75-4.9.6-8.4-.7l-.55-.3-.25-.35q-.55-.95 1.1-2.95" fill="#004566" fill-rule="evenodd" transform="translate(14.75 3.1)"/><path d="M-4.75-1.3Q-.8 0 1.45-.5l2.9-.85 3.1 6.55-1.6 1.75-.9.55Q2.7 8.65-1.2 9.65l-3.65.7q.7-2.4-2.35-3.75-2.7-1.2-5.75-.55L-12.1 5l2.95.1q1.45.2 2.55.85 3.8 2.2 6.55-.25.95-.95.8-2.1Q.15.3-4.4-.2l-2.25.1 1.9-1.2" fill="#69c" fill-rule="evenodd" transform="translate(14.75 3.1)"/><path d="m-6.65-.1 2.25-.1Q.15.3.75 3.6q.15 1.15-.8 2.1-2.75 2.45-6.55.25-1.1-.65-2.55-.85L-12.1 5l5.45-5.1m1.8 10.45 3.65-.7q3.9-1 6.15-2.15l.9-.55 1.6-1.75q.2 1.9-.05 2.3l-.1.15q-1.85 2.25-8.4 3.9-7.25 1.75-12.05 0l-.55-.3q-.35-.35-.35-2.25l.25.35.55.3q3.5 1.3 8.4.7m-.5-13.05.4.7-.4-.35v-.35" fill="#fff" fill-rule="evenodd" transform="translate(14.75 3.1)"/><path d="M4.35-1.35q-1.6-.85-3.4-1-3.15-.35-5.7 1.05l-1.9 1.2L-12.1 5l-.85 1.05q-1.65 2-1.1 2.95 0 1.9.35 2.25l.55.3q4.8 1.75 12.05 0 6.55-1.65 8.4-3.9l.1-.15q.25-.4.05-2.3l-3.1-6.55Z" fill="none" stroke="#333" stroke-linecap="round" stroke-linejoin="round" transform="translate(14.75 3.1)"/><path d="M4.35-1.3Q7.3 4.4 7.4 5.65q.4 2.6-1.85 3.55-8.45 3.4-14.85 3.4-4.65 0-4.95-3.05-.1-1.95 1.85-4.25 2.8-3 7.65-6.6Q-2.8-2.9 1.1-2.55q1.6.15 3.25 1.25" fill="#ff006a" fill-rule="evenodd" transform="translate(14.75 3.1)"/><path d="m-4.2-1.75 2.35-.9q2.3-.25 4.8.75 2 .8 3.85 6.35.8 2.4 0 3.7-.5.8-5.25 2.7.3-3.1.5-3.75.4-1.05-1.25-3.75-1.05-2-4.1-2.75-2.3-.5-.9-2.35" fill="#bd004e" fill-rule="evenodd" transform="translate(14.75 3.1)"/><path d="M7.3 5.95q-.15 3-3.6 4.2l-6.3 1.35-5.45 1q-3.6.35-5.15-1.1-1.6-1.8-.3-2.3.8.75 2.95 1.05l7.45-.5L2.65 7.8 7.3 5.95" fill="#fff" fill-rule="evenodd" transform="translate(14.75 3.1)"/><path d="m2.45 8.35-.4-.6q3.2-1.7 4.95-1.8.05 2.2-1.55 3.1-2.2.8-3.35 1.6l.35-2.3" fill="#bdb7ba" fill-rule="evenodd" transform="translate(14.75 3.1)"/><path d="M4.35-1.3Q7.3 4.4 7.4 5.65q.4 2.6-1.85 3.55-8.45 3.4-14.85 3.4-4.65 0-4.95-3.05-.1-1.95 1.85-4.25 2.8-3 7.65-6.6Q-2.8-2.9 1.1-2.55q1.6.15 3.25 1.25Z" fill="none" stroke="#000" stroke-linecap="round" stroke-linejoin="round" transform="translate(14.75 3.1)"/><path d="M0 .45Q2.95.05 2.3 2.4q-.9 2.9-4.8 4.1-5.9 1.9-10.05.1v-.35L-7.8 1.8q1.95-2 3.35-2.65.9.6-1.15 3.55Q-2.75.75 0 .45" fill="#fff" fill-rule="evenodd" transform="translate(14.75 3.1)"/><path d="M1.25 4.15Q.75 2.8.2 2.3L-2 .95-.75.3q1.5-.45 2.8.55 1.65 1.25-.8 3.3M-4.2-.5l-.15.8L-5.9.1l1.15-.9.55.3" fill="#bdb7ba" fill-rule="evenodd" transform="translate(14.75 3.1)"/></g></defs></svg>

<?xml version="1.0" encoding="UTF-8" standalone="no"?>
<svg xmlns:xlink="http://www.w3.org/1999/xlink" height="38.3px" width="36.05px" xmlns="http://www.w3.org/2000/svg">
  <g transform="matrix(1.0, 0.0, 0.0, 1.0, 23.8, 14.85)">
    <use height="16.2" transform="matrix(1.0, 0.0, 0.0, 1.0, -14.75, -3.1)" width="22.8" xlink:href="#shape0"/>
  </g>
  <defs>
    <g id="shape0" transform="matrix(1.0, 0.0, 0.0, 1.0, 14.75, 3.1)">
      <path d="M4.35 -1.35 L1.45 -0.5 Q-0.8 0.0 -4.75 -1.3 -2.2 -2.7 0.95 -2.35 2.75 -2.2 4.35 -1.35 M-12.95 6.05 Q-9.9 5.4 -7.2 6.6 -4.15 7.95 -4.85 10.35 -9.75 10.95 -13.25 9.65 L-13.8 9.35 -14.05 9.0 Q-14.6 8.05 -12.95 6.05" fill="#004566" fill-rule="evenodd" stroke="none"/>
      <path d="M-4.75 -1.3 Q-0.8 0.0 1.45 -0.5 L4.35 -1.35 7.45 5.2 5.85 6.95 4.95 7.5 Q2.7 8.65 -1.2 9.65 L-4.85 10.35 Q-4.15 7.95 -7.2 6.6 -9.9 5.4 -12.95 6.05 L-12.1 5.0 -9.15 5.1 Q-7.7 5.3 -6.6 5.95 -2.8 8.15 -0.05 5.7 0.9 4.75 0.75 3.6 0.15 0.3 -4.4 -0.2 L-6.65 -0.1 -4.75 -1.3" fill="#6699cc" fill-rule="evenodd" stroke="none"/>
      <path d="M-6.65 -0.1 L-4.4 -0.2 Q0.15 0.3 0.75 3.6 0.9 4.75 -0.05 5.7 -2.8 8.15 -6.6 5.95 -7.7 5.3 -9.15 5.1 L-12.1 5.0 -6.65 -0.1 M-4.85 10.35 L-1.2 9.65 Q2.7 8.65 4.95 7.5 L5.85 6.95 7.45 5.2 Q7.65 7.1 7.4 7.5 L7.3 7.65 Q5.45 9.9 -1.1 11.55 -8.35 13.3 -13.15 11.55 L-13.7 11.25 Q-14.05 10.9 -14.05 9.0 L-13.8 9.35 -13.25 9.65 Q-9.75 10.95 -4.85 10.35 M-5.35 -2.7 L-4.95 -2.0 -5.35 -2.35 -5.35 -2.7" fill="#ffffff" fill-rule="evenodd" stroke="none"/>
      <path d="M4.35 -1.35 Q2.75 -2.2 0.95 -2.35 -2.2 -2.7 -4.75 -1.3 L-6.65 -0.1 -12.1 5.0 -12.95 6.05 Q-14.6 8.05 -14.05 9.0 -14.05 10.9 -13.7 11.25 L-13.15 11.55 Q-8.35 13.3 -1.1 11.55 5.45 9.9 7.3 7.65 L7.4 7.5 Q7.65 7.1 7.45 5.2 L4.35 -1.35 Z" fill="none" stroke="#333333" stroke-linecap="round" stroke-linejoin="round" stroke-width="1.0"/>
      <path d="M4.35 -1.3 Q7.3 4.4 7.4 5.65 7.8 8.25 5.55 9.2 -2.9 12.6 -9.3 12.6 -13.95 12.6 -14.25 9.55 -14.35 7.6 -12.4 5.3 -9.6 2.3 -4.75 -1.3 -2.8 -2.9 1.1 -2.55 2.7 -2.4 4.35 -1.3" fill="#ff006a" fill-rule="evenodd" stroke="none"/>
      <path d="M-4.2 -1.75 L-1.85 -2.65 Q0.45 -2.9 2.95 -1.9 4.95 -1.1 6.8 4.45 7.6 6.85 6.8 8.15 6.3 8.95 1.55 10.85 1.85 7.75 2.05 7.1 2.45 6.05 0.8 3.35 -0.25 1.35 -3.3 0.6 -5.6 0.1 -4.2 -1.75" fill="#bd004e" fill-rule="evenodd" stroke="none"/>
      <path d="M7.3 5.95 Q7.15 8.95 3.7 10.15 L-2.6 11.5 -8.05 12.5 Q-11.65 12.85 -13.2 11.4 -14.8 9.6 -13.5 9.1 -12.7 9.85 -10.55 10.15 L-3.1 9.65 2.65 7.8 7.3 5.95" fill="#ffffff" fill-rule="evenodd" stroke="none"/>
      <path d="M2.45 8.35 L2.05 7.75 Q5.25 6.05 7.0 5.95 7.05 8.15 5.45 9.05 3.25 9.85 2.1 10.65 L2.45 8.35" fill="#bdb7ba" fill-rule="evenodd" stroke="none"/>
      <path d="M4.35 -1.3 Q7.3 4.4 7.4 5.65 7.8 8.25 5.55 9.2 -2.9 12.6 -9.3 12.6 -13.95 12.6 -14.25 9.55 -14.35 7.6 -12.4 5.3 -9.6 2.3 -4.75 -1.3 -2.8 -2.9 1.1 -2.55 2.7 -2.4 4.35 -1.3 Z" fill="none" stroke="#000000" stroke-linecap="round" stroke-linejoin="round" stroke-width="1.0"/>
      <path d="M0.0 0.45 Q2.95 0.05 2.3 2.4 1.4 5.3 -2.5 6.5 -8.4 8.4 -12.55 6.6 L-12.55 6.25 -7.8 1.8 Q-5.85 -0.2 -4.45 -0.85 -3.55 -0.25 -5.6 2.7 -2.75 0.75 0.0 0.45" fill="#ffffff" fill-rule="evenodd" stroke="none"/>
      <path d="M1.25 4.15 Q0.75 2.8 0.2 2.3 L-2.0 0.95 -0.75 0.3 Q0.75 -0.15 2.05 0.85 3.7 2.1 1.25 4.15" fill="#bdb7ba" fill-rule="evenodd" stroke="none"/>
      <path d="M-4.2 -0.5 L-4.35 0.3 -5.9 0.1 -4.75 -0.8 -4.2 -0.5" fill="#bdb7ba" fill-rule="evenodd" stroke="none"/>
    </g>
  </defs>
</svg>
